images/themes/default/algorithms/mAlgorithmAddGeometryAttributes.svg

<svg height="24" viewBox="0 0 6.35 6.35" width="24" xmlns="http://www.w3.org/2000/svg"><g stroke-width=".265"><path d="m.397 3.043h5.556v2.117h-5.556z" fill="#7c96a8" stroke="#517083" stroke-linecap="round"/><g fill="none"><path d="m.926 5.027v-1.587m.794 1.587v-.794m.794.794v-.794m.793.794v-.794m.794.794v-.794m.794.794v-1.323m.794 1.323v-.794" stroke="#fff"/><path d="m.397 2.381v-.926h5.556v.926" stroke="#585a56" stroke-opacity=".933"/></g></g></svg>

<svg xmlns="http://www.w3.org/2000/svg" width="24" height="24" viewBox="0 0 6.35 6.35"><path fill="#7c96a8" stroke="#517083" stroke-width=".265" stroke-linecap="round" d="M.397 3.043h5.556V5.16H.397z"/><path d="M.926 5.027V3.44M1.72 5.027v-.794M2.514 5.027v-.794M3.307 5.027v-.794M4.101 5.027v-.794M4.895 5.027V3.704M5.689 5.027v-.794" fill="none" stroke="#fff" stroke-width=".265"/><path d="M.397 2.381v-.926h5.556v.926" fill="none" stroke="#585a56" stroke-width=".265" stroke-opacity=".933"/></svg>
